!!!COM: Palestrina, Giovanni Perluigi da
!!!OPR: Missa Ad fugam
!!!OTL: Benedictus
**kern	**kern	**kern
*Itenor	*Icalto	*Icant
!Tenor	!Altus	!Cantus
*clefGv2	*clefG2	*clefG2
*k[]	*k[]	*k[]
*G:mix	*G:mix	*G:mix
*M4/2	*M4/2	*M4/2
=1	=1	=1
0r	0r	1.ee
.	.	2dd
=2	=2	=2
0r	0r	1ff
.	.	1ee
=3	=3	=3
0r	1.a	2r
.	.	4a
.	.	4b
.	.	4cc
.	.	4dd
.	2g	[2ee
=4	=4	=4
0r	1b-	4ee]
.	.	4dd
.	.	1dd
.	1a	.
.	.	2cc#
=5	=5	=5
1.d	2r	2.dd
.	4d	.
.	4e	4cc
.	4f	4a
.	4g	4b
2c	[2a	[2cc
=6	=6	=6
1e	4a]	4cc]
.	4g	4b
.	1g	4b
.	.	8a
.	.	8g
1d	.	1a
.	2f#	.
=7	=7	=7
2r	2.g	4g
.	.	4a
4G	.	4b
4A	4f	4cc
4B	4d	1dd
4c	4e	.
[2d	[2f	.
=8	=8	=8
4d]	4f]	1r
4c	4e	.
1c	4e	.
.	8d	.
.	8c	.
.	1d	2r
2B	.	2dd
=9	=9	=9
2.c	4c	1ee
.	4d	.
.	4e	.
4B	4f	.
4G	1g	2ee
4A	.	.
[2B	.	[2dd
=10	=10	=10
4B]	1r	2dd]
4A	.	.
4A	.	2cc
8G	.	.
8F	.	.
1G	2r	2b
.	2g	2b
=11	=11	=11
4F	1a	4a
4G	.	4b
4A	.	4cc
4B	.	4dd
1c	2a	4ee
.	.	4ff
.	[2g	[2ee
=12	=12	=12
1r	2g]	4ee]
.	.	4dd
.	2f	2dd
2r	2e	2gg
2c	2e	2gg
=13	=13	=13
1d	4d	1ff
.	4e	.
.	4f	.
.	4g	.
2d	4a	1r
.	4b-	.
[2c	[2a	.
=14	=14	=14
2c]	4a]	1r
.	4g	.
2B	2g	.
2A	2cc	2r
2A	2cc	2ee
=15	=15	=15
4G	1b	2gg
4A	.	.
4B	.	2dd
4c	.	.
4d	1r	1ff
4e	.	.
[2d	.	.
=16	=16	=16
4d]	1r	2ee
4c	.	.
2c	.	2ee
2f	2r	4a
.	.	4b
2f	2a	4cc
.	.	4dd
=17	=17	=17
1e	2cc	4ee
.	.	4ff
.	2g	2.ee
1r	1b-	.
.	.	4dd
.	.	[2dd
=18	=18	=18
1r	2a	2dd]
.	2a	2cc#
2r	4d	1dd
.	4e	.
2d	4f	.
.	4g	.
=19	=19	=19
2f	4a	1cc
.	4b-	.
2c	2.a	.
1e	.	2b
.	4g	.
.	[2g	4a
.	.	4g
=20	=20	=20
2d	2g]	1a
2d	2f#	.
1G	1g	1b
==	==	==
*-	*-	*-
!!!CDT: 1525/^1526/-1594/2/2
!!!OCY: Italia
!!!AGN: Mass (Canonic)
!!!AST: renaissance, vocal
!!!ASW: Motet (Maffoni)
!!!PWK: Masses, Book 2
!!!RNB: Cadence finals: C
!!!YOR: Le Opere Complete, v. 4, p. 74
!!!YOO: Rome, Italy: Fratelli Scalera
!!!END: 1992//
!!!EED: John Miller
!!!YEC: Copyright 2000, John Miller
!!!YEN: United States of America
!!!YEM: Rights to all derivative electronic formats reserved.
!!!YEM: Refer to licensing agreement for further details.
!!!YEM: This file must be accompanied by the licensing agreement.
!!!YEM: A copy of the licensing agreement may be found at http://www.music-cog.ohio-state.edu/HumdrumDatabases/Palestrina/license.txt
!!!EMD: converted to Humdrum by Bret Aarden
